img/instyle-logo.svg

<svg fill="none" height="30" viewBox="0 0 147 30" width="147" xmlns="http://www.w3.org/2000/svg" xmlns:xlink="http://www.w3.org/1999/xlink"><mask id="a" height="30" maskUnits="userSpaceOnUse" width="4" x="0" y="0"><path clip-rule="evenodd" d="m.00976562.027832h3.14969438v29.949468h-3.14969438z" fill="#fff" fill-rule="evenodd"/></mask><g mask="url(#a)"><path clip-rule="evenodd" d="m3.15881 29.9773h-3.15881v-25.51719l3.15881-4.432278z" fill="#000105" fill-rule="evenodd"/></g><g clip-rule="evenodd" fill="#000105" fill-rule="evenodd"><path d="m133.961 30h-3.748v-30h16.596v.711106h-12.848z"/><path d="m135.32 30.0001h11.49v-.6383h-11.49z"/><path d="m135.32 15.319h8.936v-.6383h-8.936z"/><path d="m115.533 30.0001h9.575v-.6383h-9.575z"/><path d="m112.979 30h-3.192v-25.54307l.06-.08241 3.132-4.37452z"/><path d="m31.9156 21.7021-.6383-.7126v-.0308l.0104-20.9587h.6279z"/><path d="m31.3473 24.3291v2.4727c.0009.4225.0003.854-.0004 1.3017l-.0012 1.8733-.6522-.7357c-3.497-3.9436-7.0328-7.6319-10.4522-11.1991-3.2177-3.3565-6.535-6.8175-9.832-10.50104v22.43584h-1.30188v-29.847405l1.18218 1.311805c.3484.38581.6777.75052 1.0038 1.11767 2.8644 3.07116 5.2142 5.49 7.7014 8.05063 1.9407 1.9978 3.9474 4.0633 6.2716 6.518 1.7192 1.9364 3.7042 4.1751 5.6763 6.4101l.1326.1526.2727.3143v.325z"/><path d="m50.6319 28.7389c-1.8484.8406-3.7026 1.2607-5.5522 1.2607-2.5169 0-5.0261-.7775-7.5045-2.3305l-.0613-.04c-.4113-.293-.4502-.3317-.467-.348l-.1642-.154 1.0384-1.245c.5494.3754.7619.4396 1.3277.7298.2791.1436.563.2895.8566.4512 1.6274.8972 3.2101 1.3699 4.7769 1.4214h.0042c3.8567.0256 5.2074-1.8696 5.4753-2.324.0341-.0581.0508-.0924.0527-.0968.1472-.281.2823-.6204.4357-1.0613.6438-1.8511.1998-3.5735-1.357-5.2661-1.1432-1.2425-2.5697-2.2097-3.9491-3.1449-.2728-.1849-.5455-.3698-.8161-.5569-.3433-.2367-.6869-.4722-1.0314-.708-1.3734-.9401-2.7935-1.912-4.1238-2.9585-1.6745-1.3172-2.5837-2.9297-2.7037-4.79336-.1798-2.7982 2.1706-5.34279 4.4306-6.52221.3362-.169712.6729-.314829 1.0084-.437794.0025-.001046.0052-.002093.0078-.002616 3.9159-1.430756 7.6601.162733 8.975.84122.1723.08407.3314.17041.468.25832.0039.00244.0078.0047.011.0068.0016.00104.0034.00209.0048.00296.0042.00262.007.00436.009.00576.0007.00035.0012.0007.0016.00087.001.0007.0491.0307.0491.0307l-1.0756 1.28878s.0442.02058-.28-.1289c-.7111-.32843-1.3824-.6382-2.0914-.84663-2.3931-.70255-4.5917-.38302-6.5348.95041-.9725.66768-1.5871 1.60518-1.7292 2.64122-.1441 1.04808.2006 2.12913.9715 3.04361.9394 1.1154 2.1403 1.86836 3.4111 2.66546.2103.1317.421.2641.6299.3977.4702.3003.942.5981 1.4138.896 1.4382.9078 2.9251 1.8464 4.3346 2.8496 1.7731 1.2625 2.9623 2.7937 3.535 4.5525 1.1603 3.5637-.3971 7.1294-3.7874 8.6705z"/><path d="m77.8727 0h-17.234v.735331c.9643.00035 1.911.001051 2.8621.001577 1.2967.001051 2.5962.001927 3.9508.002102v29.26099h3.6079v-29.300936h6.8132z"/><path d="m104.682 0-8.9359 14.6809v-1.2771l.0108-.0174 8.1441-13.3864z"/><path d="m92.0213 30v-13.5989l-8.4041-16.4011h3.4951l7.984 15.5037.0102 14.4963z"/></g></svg>

<svg width="147" height="30" viewBox="0 0 147 30" fill="none" xmlns="http://www.w3.org/2000/svg">
<mask id="mask0" mask-type="alpha" maskUnits="userSpaceOnUse" x="0" y="0" width="4" height="30">
<path fill-rule="evenodd" clip-rule="evenodd" d="M0.00976562 0.027832H3.15946V29.9773H0.00976562V0.027832Z" fill="white"/>
</mask>
<g mask="url(#mask0)">
<path fill-rule="evenodd" clip-rule="evenodd" d="M3.15881 29.9773H0V4.46011L3.15881 0.027832V29.9773Z" fill="#000105"/>
</g>
<path fill-rule="evenodd" clip-rule="evenodd" d="M133.961 30H130.213V0H146.809V0.711106H133.961V30Z" fill="#000105"/>
<path fill-rule="evenodd" clip-rule="evenodd" d="M135.32 30.0001H146.81V29.3618H135.32V30.0001Z" fill="#000105"/>
<path fill-rule="evenodd" clip-rule="evenodd" d="M135.32 15.319H144.256V14.6807H135.32V15.319Z" fill="#000105"/>
<path fill-rule="evenodd" clip-rule="evenodd" d="M115.533 30.0001H125.108V29.3618H115.533V30.0001Z" fill="#000105"/>
<path fill-rule="evenodd" clip-rule="evenodd" d="M112.979 30H109.787V4.45693L109.847 4.37452L112.979 0V30Z" fill="#000105"/>
<path fill-rule="evenodd" clip-rule="evenodd" d="M31.9156 21.7021L31.2773 20.9895V20.9587L31.2877 0H31.9156V21.7021Z" fill="#000105"/>
<path fill-rule="evenodd" clip-rule="evenodd" d="M31.3473 24.3291V26.8018C31.3482 27.2243 31.3476 27.6558 31.3469 28.1035L31.3457 29.9768L30.6935 29.2411C27.1965 25.2975 23.6607 21.6092 20.2413 18.042C17.0236 14.6855 13.7063 11.2245 10.4093 7.54096V29.9768H9.10742V0.129395L10.2896 1.4412C10.638 1.82701 10.9673 2.19172 11.2934 2.55887C14.1578 5.63003 16.5076 8.04887 18.9948 10.6095C20.9355 12.6073 22.9422 14.6728 25.2664 17.1275C26.9856 19.0639 28.9706 21.3026 30.9427 23.5376L31.0753 23.6902L31.348 24.0045V24.3295L31.3473 24.3291Z" fill="#000105"/>
<path fill-rule="evenodd" clip-rule="evenodd" d="M50.6319 28.7389C48.7835 29.5795 46.9293 29.9996 45.0797 29.9996C42.5628 29.9996 40.0536 29.2221 37.5752 27.6691L37.5139 27.6291C37.1026 27.3361 37.0637 27.2974 37.0469 27.2811L36.8827 27.1271L37.9211 25.8821C38.4705 26.2575 38.683 26.3217 39.2488 26.6119C39.5279 26.7555 39.8118 26.9014 40.1054 27.0631C41.7328 27.9603 43.3155 28.433 44.8823 28.4845H44.8865C48.7432 28.5101 50.0939 26.6149 50.3618 26.1605C50.3959 26.1024 50.4126 26.0681 50.4145 26.0637C50.5617 25.7827 50.6968 25.4433 50.8502 25.0024C51.494 23.1513 51.05 21.4289 49.4932 19.7363C48.35 18.4938 46.9235 17.5266 45.5441 16.5914C45.2713 16.4065 44.9986 16.2216 44.728 16.0345C44.3847 15.7978 44.0411 15.5623 43.6966 15.3265C42.3232 14.3864 40.9031 13.4145 39.5728 12.368C37.8983 11.0508 36.9891 9.4383 36.8691 7.57464C36.6893 4.77644 39.0397 2.23185 41.2997 1.05243C41.6359 0.882718 41.9726 0.737601 42.3081 0.614636C42.3106 0.61359 42.3133 0.612543 42.3159 0.61202C46.2318 -0.818736 49.976 0.774753 51.2909 1.45324C51.4632 1.53731 51.6223 1.62365 51.7589 1.71156C51.7628 1.714 51.7667 1.71626 51.7699 1.71836C51.7715 1.7194 51.7733 1.72045 51.7747 1.72132C51.7789 1.72394 51.7817 1.72568 51.7837 1.72708C51.7844 1.72743 51.7849 1.72778 51.7853 1.72795C51.7863 1.72865 51.8344 1.75865 51.8344 1.75865L50.7588 3.04743C50.7588 3.04743 50.803 3.06801 50.4788 2.91853C49.7677 2.5901 49.0964 2.28033 48.3874 2.0719C45.9943 1.36935 43.7957 1.68888 41.8526 3.02231C40.8801 3.68999 40.2655 4.62749 40.1234 5.66353C39.9793 6.71161 40.324 7.79266 41.0949 8.70714C42.0343 9.82254 43.2352 10.5755 44.506 11.3726C44.7163 11.5043 44.927 11.6367 45.1359 11.7703C45.6061 12.0706 46.0779 12.3684 46.5497 12.6663C47.9879 13.5741 49.4748 14.5127 50.8843 15.5159C52.6574 16.7784 53.8466 18.3096 54.4193 20.0684C55.5796 23.6321 54.0222 27.1978 50.6319 28.7389Z" fill="#000105"/>
<path fill-rule="evenodd" clip-rule="evenodd" d="M77.8727 0H60.6387V0.735331C61.603 0.735681 62.5497 0.736382 63.5008 0.736908C64.7975 0.737959 66.097 0.738835 67.4516 0.73901V30H71.0595V0.699064H77.8727V0Z" fill="#000105"/>
<path fill-rule="evenodd" clip-rule="evenodd" d="M104.682 0L95.7461 14.6809V13.4038L95.7569 13.3864L103.901 0H104.682Z" fill="#000105"/>
<path fill-rule="evenodd" clip-rule="evenodd" d="M92.0213 30V16.4011L83.6172 0H87.1123L95.0963 15.5037L95.1065 30H92.0213Z" fill="#000105"/>
</svg>
